svgs/sharp-regular/desktop.svg

<svg xmlns="http://www.w3.org/2000/svg" viewBox="0 0 576 512"><!--! Font Awesome Pro 6.6.0 by @fontawesome - https://fontawesome.com License - https://fontawesome.com/license (Commercial License) Copyright 2024 Fonticons, Inc. --><path d="M528 48L48 48l0 208 480 0 0-208zm48 208l0 48 0 64 0 48-48 0-163.7 0 8 48 51.7 0 24 0 0 48-24 0-72 0-128 0-72 0-24 0 0-48 24 0 51.7 0 8-48L48 416 0 416l0-48 0-64 0-48L0 48 0 0 48 0 528 0l48 0 0 48 0 208zM48 304l0 64 480 0 0-64L48 304zM260.3 416l-8 48 71.3 0-8-48-55.3 0z"/></svg>

<svg xmlns="http://www.w3.org/2000/svg" viewBox="0 0 576 512"><!--! Font Awesome Pro 6.4.0 by @fontawesome - https://fontawesome.com License - https://fontawesome.com/license (Commercial License) Copyright 2023 Fonticons, Inc. --><path d="M528 48H48V256H528V48zm48 208v48 64 48H528 364.3l8 48H424h24v48H424 352 224 152 128V464h24 51.7l8-48H48 0V368 304 256 48 0H48 528h48V48 256zM48 304v64H528V304H48zM260.3 416l-8 48h71.3l-8-48H260.3z"/></svg>
